X:68
T:Return of Spring, The
R:polka
D:Joe McHugh & Barry Carroll: The Long Finger
Z:id:hn-polka-68
M:2/4
L:1/8
K:G
d>e dB|G2 GD|GB/d/ ed|c2 cB|cd cA|F2 F2|d (3B/^c/d/ ed|B2 Bc|
d>e dB|G2 GD|GB/d/ ed|c2 cB|Af f/e/f|Ae e/d/e|dB cA|G2 Gd||
|:g>g ge|f>f fd|ed Bc|d2 dB|G (3B/^c/d/ ed|1 A2 A2|d (3B/^c/d/ ed|
B2 Bd:|2 A>A Ag|fd ef|g2 ge||
|:dd g>f|ee a>g|fd ef|ed Bc|dd g>f|ee a>g|fd ef|g2 ge:|
<end>
<start>
